X:1
T:Movete via pieta
T:Movete via pieta
T:Giulio Caccini
T:Source : Le nuove Musiche di G.Caccini detto Romano---Firenze---G.Marescotti---1601. Editor : André Vierendeels (01/11/16).
T:Notes : Original clefs : C1, F4 Editorial accidentals above the staff Figures in BC are notated in original print m 3 in S : first "A" notated as dotted half  note in original print m 13 in BC : "E" notated as "D" in original print m 16 in S :  2nd "E" notated as "D" in original print m 49 in BC : "D" notated as "F" in original print
T:©
T:©
T:©
T:©
T:©
C:Giulio Caccini
Z:©
%%score 1 2
L:1/8
Q:1/4=99
M:2/2
K:C
V:1 treble nm="Soprano" snm="S"
V:2 bass nm="MusicXML Part"
V:1
 G8 | A6 A2 | A4 A2 G3/2A/4B/4 | ^G8 | z4 B4 | B6 B2 | B4 c2 B3/2c/4d/4 | B4 z2 ^G2 | A6 G2 | %9
w: Mo-|ve- te|vi- a pie- * *|ta|mo-|ve- te|vi- a pie- * *|ta del|mio tor-|
 F>GF>G A4 | E4 z2 ^G2 | A/^G/A/B/ A/G/A/B/ A/B/c/d<eA/ | B8 | A4 z2 ^c2 | %14
w: men- * * * *|to e|do- * * * * * * * * * * * * v'il|pian-|to, e'l|
 d2 c2 B>A B/A/B/4A/4G/4F/4 | G>^F G/F/G/4F/4E/4D/4 E>D E/D/E/4D/4C/4B,/4 | %16
w: so- spi- rar _ _ _ _ _ _ _|_ _ _ _ _ _ _ _ _ _ _ _ _ _ _ _|
 C-C/D/ E/F/G/A/4B/4 c2 G2 | G8 | G8 | c6 c2 | A6 A2 | B>c d2- d/c/B/A/ G^F | %22
w: * * * * * * * * * non|giun-|ge,|deh por-|ta- te|voi _ _ _ _ _ _ _ _|
 G>A G>A B/c/A/B/ A/B/G | A2 A2 c4 | B2 ^GG A4- | A4 d4 | e4- e fe/d/c/B/ | B4- B2- B/c/d | %28
w: lun- * * * * * * * * * *|gr, por- ta-|t'au- re be- ni-|* gn'il|mio _ la- * * * *|men- * * * *|
"^# 6" B8 | A8- | A4 ^G4 | e6 dc | B2 c2 d4- | d2 G2 A2 B>c | d6 c2 | B6 A>B | cA d2 e4- | e4 A4 | %38
w: to,|Las-|* so,|las- so, ch'io|pre- go'il vén-|* to, e non _|_ m'a-|veg- * *|* gio mo- ren-|* d'ohi|
 B2 B2 e2 B2 | c2 ^G2 A4 | B8 | d4 A4 | e6 dc | B2 c2 d4- | d2 G2 A2 B>c | d6 c2 | B6 A3/2B/4c/4 | %47
w: m'è ch'al ven- to,|ahi t'io cheg-|gio,|las- so,,|las- so, ch'io|pre- go'il ven-|* to, e non _|_ m'a-|veg- * * *|
 A2 d2 e4- | e4 A4 | ^G4 z2 B2 | B6 ^G2 | A4 B2- B/c/d | c>d e2 A2 B2 | c2 d/B/-B cB>cd | B8- | %55
w: gio mo- ren-|* d'ohi|mè, ch'al|ven- to,|ahi t'io _ _ _|chieg- * * * *||gio.|
 B8 |] %56
w: _|
V:2
"^BC" E,8 |"^#""^#" A,,4 A,,4 |"^-natural""^-natural" D,4 A,,4 | E,8 |"^-natural" E,8 | %5
"^#""^#" B,,4 B,,4 |"^#" E,4 A,,4 |"^11""^# 10" E,4 E,4 |"^-natural" D,4 ^C,4 | D,8 | %10
"^11""^# 10" E,4 E,4 |"^-natural" A,,8 |"^4 # 3" E,4 E,,4 |"^#" A,,4 A,4 | G,4 G,2 ^F,2 | %15
 E,2 D,2 C,4 | C,4 C,4 |"^11""^10" G,4 G,4 |"^#" C,8 | C,4 G,4 |"^#" A,2 G,2 ^F,4 | G,4 ^F,4 | %22
"^7" E,4 E,2 E,2 |"^#" D,4 A,,4 |"^6" E,4 ^C,4 |"^#""^#" D,4 D,4 |"^-natural""^6" A,,4 ^G,,4 | %27
"^11""^# 10" B,,4 B,,4 | E,8 |"^-natural" A,,8 | E,4 E,,4 | A,,4 G,,2 G,2- | G,2 F,E, D,2 G,2 | %33
 ^F,2 G,2 D,4 | B,,2 ^F,,2 G,,4- | G,,2 A,,2 B,,2 C,2 | D,4 A,,4 |"^6" F,4 F,4 | %38
"^4""^# 3" E,4 E,2 E,2 |"^-natural" A,2 E,2 A,,4 |"^#" E,8 |"^#" D,8 |"^-natural" A,,4 G,,2 G,2- | %43
 G,2 F,E, D,2 G,2 | ^F,2 G,2 D,4 | B,,2 ^F,,2 G,,4- | G,,2 A,,2 B,,2 C,2 | D,4 A,,4 | %48
"^-natural" F,4 D,4 |"^-natural" E,4 E,4 |"^#" B,,4 E,4 |"^-natural""^6" A,,4 ^G,,4 | A,,8 | A,,8 | %54
"^4""^#3""^2" E,4 E,2 E,2 |"^# 3" E,8 |] %56

